Newaita/actions/22/view-catalog.svg

<svg height="22" viewBox="0 0 22 22" width="22" xmlns="http://www.w3.org/2000/svg"><g fill="#424242"><path d="m5.914062 5.628906h6.367188c.25 0 .453125.203125.453125.457032 0 .25-.203125.453124-.453125.453124h-6.367188c-.253906 0-.457031-.203124-.457031-.453124 0-.253907.203125-.457032.457031-.457032zm0 0"/><path d="m5.914062 8.359375h6.367188c.25 0 .453125.203125.453125.453125s-.203125.457031-.453125.457031h-6.367188c-.253906 0-.457031-.207031-.457031-.457031s.203125-.453125.457031-.453125zm0 0"/><path d="m5.914062 11.085938h2.726563c.25 0 .457031.203124.457031.457031 0 .25-.207031.453125-.457031.453125h-2.726563c-.253906 0-.457031-.203125-.457031-.453125 0-.253907.203125-.457031.457031-.457031zm0 0"/><path d="m3.636719 1.992188c-1.007813 0-1.816407.808593-1.816407 1.816406v14.554687c0 1.007813.808594 1.820313 1.816407 1.820313h5.460937v-1.820313h-4.550781c-.503906 0-.910156-.40625-.910156-.910156v-12.734375c0-.503906.40625-.910156.910156-.910156h9.097656c.503907 0 .910157.40625.910157.910156v4.550781h1.816406v-5.460937c0-1.007813-.808594-1.816406-1.816406-1.816406zm0 0"/><path d="m11.824219 11.085938c-.503907 0-.910157.40625-.910157.910156v7.277344c0 .503906.40625.910156.910157.910156h7.277343c.503907 0 .910157-.40625.910157-.910156v-7.277344c0-.503906-.40625-.910156-.910157-.910156zm1.363281 1.820312h4.550781c.25 0 .453125.203125.453125.453125v4.550781c0 .25-.203125.453125-.453125.453125h-4.550781c-.25 0-.453125-.203125-.453125-.453125v-4.550781c0-.25.203125-.453125.453125-.453125zm0 0"/></g></svg>

<svg xmlns="http://www.w3.org/2000/svg" xmlns:xlink="http://www.w3.org/1999/xlink" width="22px" height="22px" viewBox="0 0 22 22" version="1.1">
<g id="surface1">
     <defs>
  <style id="current-color-scheme" type="text/css">
   .ColorScheme-Text { color:#424242; } .ColorScheme-Highlight { color:#eeeeee; }
  </style>
 </defs>
<path style="fill:currentColor" class="ColorScheme-Text" d="M 5.914062 5.628906 L 12.28125 5.628906 C 12.53125 5.628906 12.734375 5.832031 12.734375 6.085938 C 12.734375 6.335938 12.53125 6.539062 12.28125 6.539062 L 5.914062 6.539062 C 5.660156 6.539062 5.457031 6.335938 5.457031 6.085938 C 5.457031 5.832031 5.660156 5.628906 5.914062 5.628906 Z M 5.914062 5.628906 "/>
     <defs>
  <style id="current-color-scheme" type="text/css">
   .ColorScheme-Text { color:#424242; } .ColorScheme-Highlight { color:#eeeeee; }
  </style>
 </defs>
<path style="fill:currentColor" class="ColorScheme-Text" d="M 5.914062 8.359375 L 12.28125 8.359375 C 12.53125 8.359375 12.734375 8.5625 12.734375 8.8125 C 12.734375 9.0625 12.53125 9.269531 12.28125 9.269531 L 5.914062 9.269531 C 5.660156 9.269531 5.457031 9.0625 5.457031 8.8125 C 5.457031 8.5625 5.660156 8.359375 5.914062 8.359375 Z M 5.914062 8.359375 "/>
     <defs>
  <style id="current-color-scheme" type="text/css">
   .ColorScheme-Text { color:#424242; } .ColorScheme-Highlight { color:#eeeeee; }
  </style>
 </defs>
<path style="fill:currentColor" class="ColorScheme-Text" d="M 5.914062 11.085938 L 8.640625 11.085938 C 8.890625 11.085938 9.097656 11.289062 9.097656 11.542969 C 9.097656 11.792969 8.890625 11.996094 8.640625 11.996094 L 5.914062 11.996094 C 5.660156 11.996094 5.457031 11.792969 5.457031 11.542969 C 5.457031 11.289062 5.660156 11.085938 5.914062 11.085938 Z M 5.914062 11.085938 "/>
     <defs>
  <style id="current-color-scheme" type="text/css">
   .ColorScheme-Text { color:#424242; } .ColorScheme-Highlight { color:#eeeeee; }
  </style>
 </defs>
<path style="fill:currentColor" class="ColorScheme-Text" d="M 3.636719 1.992188 C 2.628906 1.992188 1.820312 2.800781 1.820312 3.808594 L 1.820312 18.363281 C 1.820312 19.371094 2.628906 20.183594 3.636719 20.183594 L 9.097656 20.183594 L 9.097656 18.363281 L 4.546875 18.363281 C 4.042969 18.363281 3.636719 17.957031 3.636719 17.453125 L 3.636719 4.71875 C 3.636719 4.214844 4.042969 3.808594 4.546875 3.808594 L 13.644531 3.808594 C 14.148438 3.808594 14.554688 4.214844 14.554688 4.71875 L 14.554688 9.269531 L 16.371094 9.269531 L 16.371094 3.808594 C 16.371094 2.800781 15.5625 1.992188 14.554688 1.992188 Z M 3.636719 1.992188 "/>
     <defs>
  <style id="current-color-scheme" type="text/css">
   .ColorScheme-Text { color:#424242; } .ColorScheme-Highlight { color:#eeeeee; }
  </style>
 </defs>
<path style="fill:currentColor" class="ColorScheme-Text" d="M 11.824219 11.085938 C 11.320312 11.085938 10.914062 11.492188 10.914062 11.996094 L 10.914062 19.273438 C 10.914062 19.777344 11.320312 20.183594 11.824219 20.183594 L 19.101562 20.183594 C 19.605469 20.183594 20.011719 19.777344 20.011719 19.273438 L 20.011719 11.996094 C 20.011719 11.492188 19.605469 11.085938 19.101562 11.085938 Z M 13.1875 12.90625 L 17.738281 12.90625 C 17.988281 12.90625 18.191406 13.109375 18.191406 13.359375 L 18.191406 17.910156 C 18.191406 18.160156 17.988281 18.363281 17.738281 18.363281 L 13.1875 18.363281 C 12.9375 18.363281 12.734375 18.160156 12.734375 17.910156 L 12.734375 13.359375 C 12.734375 13.109375 12.9375 12.90625 13.1875 12.90625 Z M 13.1875 12.90625 "/>
</g>
</svg>
